checkerboard.svg

<svg fill="currentColor" viewBox="0 0 24 24"><path d="M2 2v20h20V2zm18 10h-4v4h4v4h-4v-4h-4v4H8v-4H4v-4h4V8H4V4h4v4h4V4h4v4h4zm-4-4v4h-4V8zm-4 4v4H8v-4z"/></svg>

<svg  viewBox="0 0 24 24" fill="currentColor"><path  d="M2 2V22H22V2H2M20 12H16V16H20V20H16V16H12V20H8V16H4V12H8V8H4V4H8V8H12V4H16V8H20V12M16 8V12H12V8H16M12 12V16H8V12H12Z"/></svg>
